X: 35370
T: Roslyn Castle
R: reel
M: 4/4
K: Eminor
GF|~E2 B>c B2 (AB)|(cB)(~AG) ~F2 G>F|~E2 e>f g2 (fe)|(^de)(fd) B2 (AB)|
(cB)(~AG) F2 GA|(BG)(FE) ~^d2 (ef)|(ge)(f^d) (ec)(BA)|G2 ~F>E) E2:|

